X: 23088
T: Laughing Wolf, The
R: hornpipe
M: 4/4
K: Dmajor
e2|eAAB AGEF|GAGE DEGA|eAAB AGEF|GAGE D2|
eAAB AGEF|GAGE DEGA|eAAB AGEF|GAGE D2||
cdeaaf gfed|efed gBBg|eaaf gfed|efed g2 fg|
eaaf gfed|efed gBBg|eaaf gfed|=cA BG A2|

